src/categories-icons-sprite/categories/svg-cat-cosmetics-parfume.svg

<svg width="33" height="38" viewBox="0 0 33 38" fill="none" xmlns="http://www.w3.org/2000/svg">
<path class="p-596C76" d="M7.62887 3.06372H4.36719V5.23817H7.62887V3.06372Z" fill="#58ADE5"/>
<path class="p-465A61" d="M23.7034 11.8401L23.4529 11.3899C21.3453 7.59528 17.3394 5.23817 12.999 5.23817H11.9775V3.06372H12.999C18.1283 3.06372 22.8626 5.84977 25.3534 10.3335L25.604 10.7826L23.7034 11.8401Z" fill="#58ADE5"/>
<path class="p-FFD396" d="M13.0644 0H6.54102V8.49991H13.0644V0Z" fill="#5FBEFF"/>
<path class="p-FFB64C" d="M13.0644 0H9.80273V8.49991H13.0644V0Z" fill="#76B7E2"/>
<path class="p-FFB64C" d="M15.2395 8.302H4.36719V12.8488H15.2395V8.302Z" fill="#58ADE5"/>
<path class="p-FF9100" d="M15.2389 8.302H9.80273V12.8488H15.2389V8.302Z" fill="#4D98CB"/>
<path class="p-F2F2FC" d="M19.61 21.0899L15.7177 25.2648L9.80326 24.9604L4.34538 24.6995L0.0400391 21.3507C0.235667 18.5675 1.06196 15.6537 2.9973 12.3051L3.30172 11.7615H8.71611L9.80333 13.9359L10.8906 11.7615H16.3049L16.6094 12.3051C18.4793 15.5451 19.3491 18.3936 19.61 21.0899Z" fill="#A1D1FD"/>
<path class="p-D8D8FC" d="M19.6095 21.09L15.7172 25.2649L9.80273 24.9606V13.9362L10.89 11.7617H16.3044L16.6088 12.3053C18.4788 15.5453 19.3486 18.3938 19.6095 21.09Z" fill="#B9DFFC"/>
<path class="p-FFD2FE" d="M19.653 23.8297C19.5008 27.0478 18.6309 30.3676 17.5873 34.0424C17.3046 35.0427 17.0219 36.0864 16.7174 37.1954L16.5 37.9999H3.32286L3.10535 37.1954C2.75751 35.9341 2.43127 34.7382 2.10517 33.6074C1.12667 30.2153 0.278558 27.1132 0.0611852 24.1342C-0.00412086 23.2208 -0.0258653 22.2858 0.0394407 21.3508C0.713521 20.9376 1.40935 20.5898 2.17033 20.3506C4.34478 19.6765 6.67145 19.8286 8.71544 20.742L9.80266 24.8082L10.8899 22.0249C12.3034 22.9382 14.0211 23.3296 15.7171 23.0903C17.1959 22.8512 18.5222 22.1553 19.6094 21.0899C19.6964 22.0249 19.6964 22.9165 19.653 23.8297Z" fill="#5FBEFF"/>
<path class="p-FFB6FA" d="M19.653 23.8297C19.5008 27.0478 18.6309 30.3675 17.5873 34.0423C17.3046 35.0427 17.0219 36.0863 16.7174 37.1953L16.5 37.9998H9.80273V24.8082L10.89 22.0248C12.3034 22.9381 14.0212 23.3295 15.7172 23.0903C17.1959 22.8511 18.5223 22.1553 19.6095 21.0898C19.6964 22.0248 19.6964 22.9164 19.653 23.8297Z" fill="#65B3E7"/>
<path class="p-D8D8FC" d="M10.8893 11.7617V22.0251L9.82381 23.569L9.80207 23.5037L8.71484 20.7422V11.7617H10.8893Z" fill="#5FBEFF"/>
<path class="p-A3A3D1" d="M10.89 11.7617V22.0251L9.82448 23.569L9.80273 23.5037V11.7617H10.89Z" fill="#76B7E2"/>
<path class="p-FFB6FA" d="M10.8893 22.025V33.6512H8.71484V20.7422C9.08443 20.9161 9.45423 21.1118 9.80207 21.3292C10.0194 21.4597 10.237 21.6119 10.4544 21.7641C10.5849 21.8728 10.7371 21.9381 10.8893 22.025Z" fill="#58ADE5"/>
<path class="p-FF9AC9" d="M10.89 22.0249V33.6511H9.80273V21.3291C10.0201 21.4596 10.2376 21.6118 10.4551 21.764C10.5855 21.8727 10.7377 21.938 10.89 22.0249Z" fill="#4D98CB"/>
<path class="p-FF9AC9" d="M22.2718 18.4081C20.7513 15.1476 21.725 11.4654 24.441 10.1987C27.3651 8.83825 30.7055 10.7707 32.1248 13.8129C33.6453 17.0735 32.6716 20.7556 29.9557 22.0223C27.0347 23.3815 23.6929 21.4543 22.2718 18.4081Z" fill="#4D98CB"/>
</svg>

<svg width="33" height="38" fill="none" xmlns="http://www.w3.org/2000/svg"><path class="p-596C76" d="M7.629 3.064H4.367v2.174H7.63V3.064z" fill="#58ADE5"/><path class="p-465A61" d="M23.703 11.84l-.25-.45a11.965 11.965 0 00-10.454-6.152h-1.022V3.064H13c5.13 0 9.864 2.786 12.354 7.27l.251.449-1.9 1.057z" fill="#58ADE5"/><path class="p-FFD396" d="M13.064 0H6.541v8.5h6.523V0z" fill="#5FBEFF"/><path class="p-FFB64C" d="M13.064 0H9.803v8.5h3.261V0z" fill="#76B7E2"/><path class="p-FFB64C" d="M15.24 8.302H4.367v4.547H15.24V8.302z" fill="#58ADE5"/><path class="p-FF9100" d="M15.239 8.302H9.803v4.547h5.436V8.302z" fill="#4D98CB"/><path class="p-F2F2FC" d="M19.61 21.09l-3.892 4.175-5.915-.305-5.458-.26L.04 21.35c.196-2.783 1.022-5.696 2.957-9.045l.305-.543h5.414l1.087 2.174 1.088-2.175h5.414l.304.544c1.87 3.24 2.74 6.089 3.001 8.785z" fill="#A1D1FD"/><path class="p-D8D8FC" d="M19.61 21.09l-3.893 4.175-5.914-.304V13.936l1.087-2.174h5.414l.305.543c1.87 3.24 2.74 6.089 3 8.785z" fill="#B9DFFC"/><path class="p-FFD2FE" d="M19.653 23.83c-.152 3.218-1.022 6.538-2.066 10.212-.282 1-.565 2.044-.87 3.153L16.5 38H3.323l-.218-.805c-.347-1.26-.674-2.457-1-3.588C1.127 30.215.28 27.113.061 24.134a19.772 19.772 0 01-.022-2.783c.675-.413 1.37-.761 2.131-1a9.297 9.297 0 016.545.391l1.088 4.066 1.087-2.783a7.088 7.088 0 004.827 1.065c1.479-.239 2.805-.935 3.892-2 .087.935.087 1.826.044 2.74z" fill="#5FBEFF"/><path class="p-FFB6FA" d="M19.653 23.83c-.152 3.218-1.022 6.538-2.066 10.212-.282 1-.565 2.044-.87 3.153L16.5 38H9.803V24.808l1.087-2.783a7.089 7.089 0 004.827 1.065c1.479-.239 2.805-.935 3.893-2 .086.935.086 1.826.043 2.74z" fill="#65B3E7"/><path class="p-D8D8FC" d="M10.89 11.762v10.263L9.823 23.57l-.022-.065-1.087-2.762v-8.98h2.174z" fill="#5FBEFF"/><path class="p-A3A3D1" d="M10.89 11.762v10.263L9.824 23.57l-.021-.065V11.762h1.087z" fill="#76B7E2"/><path class="p-FFB6FA" d="M10.89 22.025v11.626H8.714V20.742c.37.174.74.37 1.087.587.217.13.435.283.652.435.13.109.283.174.435.261z" fill="#58ADE5"/><path class="p-FF9AC9" d="M10.89 22.025V33.65H9.803V21.33c.217.13.435.283.652.435.13.109.283.174.435.26zM22.272 18.408c-1.52-3.26-.547-6.943 2.169-8.21 2.924-1.36 6.265.573 7.684 3.615 1.52 3.26.547 6.943-2.17 8.21-2.92 1.358-6.262-.569-7.683-3.615z" fill="#4D98CB"/></svg>
